packages/katcn/src/icons/svg/bold-solid.svg

<svg width="24" height="25" viewBox="0 0 24 25" fill="none" xmlns="http://www.w3.org/2000/svg">
<path d="M17.8542 11.796C17.952 11.696 17.952 11.696 17.8542 11.796C18.9292 10.696 19.5156 9.29602 19.5156 7.79602C19.5156 4.79602 17.0724 2.29602 14.1407 2.29602H9.15669H7.20218H5.54085H3.97725C3.3909 2.29602 3 2.69602 3 3.29602C3 3.89602 3.3909 4.29602 3.97725 4.29602H4.5636V12.296V20.296H3.97725C3.3909 20.296 3 20.696 3 21.296C3 21.896 3.3909 22.296 3.97725 22.296H5.54085H7.10446H9.05896H15.6065C17.0724 22.296 18.4406 21.696 19.4178 20.696C20.3951 19.696 20.9814 18.296 20.9814 16.796C21.1769 14.496 19.8087 12.596 17.8542 11.796ZM17.5611 7.79602C17.5611 8.69602 17.1701 9.59602 16.5838 10.296C15.8997 10.996 15.1179 11.296 14.1407 11.296H10.1339V4.29602H14.1407C16.0952 4.29602 17.5611 5.89602 17.5611 7.79602ZM18.1474 19.296C17.4633 19.996 16.6815 20.296 15.7043 20.296H10.1339V13.296H15.7043C17.5611 13.296 19.1247 14.896 19.1247 16.796C19.2224 17.696 18.8315 18.596 18.1474 19.296Z" fill="black"/>
</svg>

<svg xmlns="http://www.w3.org/2000/svg" fill="none" viewBox="0 0 24 25"><path fill="#000" d="M17.854 11.796q.147-.15 0 0c1.075-1.1 1.662-2.5 1.662-4 0-3-2.444-5.5-5.375-5.5H3.977c-.586 0-.977.4-.977 1s.39 1 .977 1h.587v16h-.587c-.586 0-.977.4-.977 1s.39 1 .977 1h11.63a5.33 5.33 0 0 0 3.81-1.6c.978-1 1.564-2.4 1.564-3.9.196-2.3-1.172-4.2-3.127-5m-.293-4c0 .9-.39 1.8-.977 2.5-.684.7-1.466 1-2.443 1h-4.007v-7h4.007c1.954 0 3.42 1.6 3.42 3.5m.586 11.5c-.684.7-1.465 1-2.443 1h-5.57v-7h5.57c1.857 0 3.42 1.6 3.42 3.5.098.9-.293 1.8-.977 2.5"/></svg>
